X:1
T:Title
%%score { ( 1 4 ) | ( 2 3 ) }
L:1/8
M:6/8
K:Db
V:1 treble nm="Grand Piano"
V:4 treble 
V:2 bass 
V:3 bass 
V:1
 z3 z[Q:1/4=100] [DF][EG] | [FA]2 [Fd] [DF]2 [_FB] | [FA]3 D3 | [CE]2 [DF] [FA]=G[A,E_G] | %4
[M:2/4] [A,DF]4 |[M:1/4] [A,DF][A,EG] |[M:3/4] z2 z f z2 | G2- [Gd] [DFA]3 | %8
 E-[EB] [=Gd][Fd] c[DGB] |[M:9/16] [EGc]4- [EGc]/ |[M:3/8] [DGB]3/2[CGA]3/2 | %11
[M:3/4] [FA][GB] [FA][DF] [DA][Fd] | [Gd]3 [Gc]2 c | ec BA BA |[M:5/8] A-A- A3 |[M:1/8] A | %16
[M:3/4] [Af][Ae] [Ad][FA] [_F=G][=FA] |[M:7/8] B2 c d3 B |[M:13/16] A-<Ad/d/de3/2c | %19
[M:9/16] d->d-[Gd-][Fd]3/2 |] %20
V:2
 z3 z [D,A,][D,A,] | [D,D]2 [D,A,] [D,A,]2 [D,=G,] | [D,A,]3 [D,F,]3 | [A,,A,]2 [A,,A,] z _FA,, | %4
[M:2/4] D,4 |[M:1/4] D,D, |[M:3/4] D,2 [D,A,][D,D] [E,C]F, | z2 B, D,3 | z D .[E,B,]2 EE, | %9
[M:9/16] A,4- A,/ |[M:3/8] A,3/2A,3/2 |[M:3/4] [D,D][D,D] [D,D][D,A,] [D,F,][D,A,] | %12
 [E,A,]3 [A,,A,]2[K:treble] [A,G] | [A,CG][A,EG] [A,DG][A,CG][K:bass] [A,CE][A,C_F] | %14
[M:5/8] z2 A, F,2 |[M:1/8] A, |[M:3/4] [D,D][E,C] [F,D][D,D] [D,D][D,D] |[M:7/8] D2 z z z z2 | %18
[M:13/16][K:treble] [A,DF]-<[A,DF][=A,D_F]/[A,DF]/[_A,E=F][A,CG]3/2[A,EG] | %19
[M:9/16][K:bass] z3/2 z/ B,A,3/2 |] %20
V:3
 x6 | x6 | x6 | z3 .[A,,A,]3 |[M:2/4] x4 |[M:1/4] x2 |[M:3/4] x6 | G,4 z2 | E,2 z .E,3 | %9
[M:9/16] x9/2 |[M:3/8] x3 |[M:3/4] x6 | x5[K:treble] x | x4[K:bass] x2 |[M:5/8] D,-D,- D,3 | %15
[M:1/8] x |[M:3/4] x6 |[M:7/8] [G,G]2- [G,CG] [G,B,G]3 [G,D_F] |[M:13/16][K:treble] x13/2 | %19
[M:9/16][K:bass] D,4- D,/ |] %20
V:4
 x6 | x6 | x6 | x6 |[M:2/4] x4 |[M:1/4] x2 |[M:3/4] [DFA]2 [Fd]A- [Ae][Ad] | [DB]2 z2 z2 | %8
 .[B,=G]2 z .G3 |[M:9/16] x9/2 |[M:3/8] x3 |[M:3/4] x6 | x6 | x6 |[M:5/8] [DF]2 E D2 |[M:1/8] x | %16
[M:3/4] x6 |[M:7/8] x7 |[M:13/16] x13/2 |[M:9/16] .[DF]3 z3/2 |] %20

